X: 21013
T: Juliana
R: jig
M: 6/8
K: Gmajor
|:"G"DED G2 B|"D"BAF "G"G2 B|"Em7"d2 d dcB|"Am7"cBc "D"A3|
"G"DED G2 B|"D"BAF "G"G2 B|d2 d dBG|"D7"cAF "G"G3:|
|:"D"A2 d edc|"G"Bdc BAG|"D"A2 d edc|"G"BdB G2 B|
"C"c2 g gec|"G"B2 g gdB|"Am"ecA "G"dBG|1 "D"FGA A3:|2 "D"FGA D3||
|:"G"B3 "C"c3|"G"BAG "C"E3|"G"D2 d d2 d|dcB "D"A3|
"G"B3 "Am"c3|"Em"BAG "C"E3|"D"D2 d dcB|"D7"A3 "G"G3:|

